X: 11
T: No_109_Song_Around_a_Rawhide.krn
N: Derived from No_109_Song_Around_a_Rawhide.krn
%%abc-version 2.0
%%abcx-abcm2ps-target-version 5.9.1 (29 Sep 2008)
%%abc-creator hum2abc beta
%%abcx-conversion-date 2019/03/15 08:36:49
%%humdrum-veritas 2643984302
%%humdrum-veritas-data 958093997
%%linebreak <none>
%%barnumbers 0
L: 1/8
M: 2/4
%%staves {1 2}
V: 1 clef=bass
V: 2 clef=bass
K: Bb
[V:1] [K:clef=bass][M:2/4]B,3/C/B,2 | 
[V:2] [K:clef=bass][M:2/4](3!accent!G,,G,, z (3!accent!G,,G,, z | 
[V:1] B,2(3B,B,B, | 
[V:2] z4 | 
[V:1] B,3/B,/F,2 | 
[V:2] z4 | 
[V:1] F,2F,2 | 
[V:2] z4 | 
[V:1] B,3/C/B,2 | 
[V:2] z4 | 
[V:1] B,2(3B,B,B, | 
[V:2] z4 | 
[V:1] B,3/B,/F,2 | 
[V:2] z4 | 
[V:1] F,2(3=E,E,E, | 
[V:2] z4 | 
[V:1] F,3/G,/F,2 | 
[V:2] z4 | 
[V:1] F,2(3=E,E,E, | 
[V:2] z4 | 
[V:1] F,3/E,/ D,B,, | 
[V:2] z4 | 
[V:1] D,/D,3/B,,2 | 
[V:2] z4 | 
[V:1] D,3/F,/ D,3/B,,/ | 
[V:2] z4 | 
[V:1] D,/D,3/ (3B,,B,,B,, | 
[V:2] z4 | 
[V:1] B,,3B,, ||  
[V:2] z4 ||  
[V:1] [M:3/4]B,,6 ||  
[V:2] [M:3/4]z6 ||  
[V:1] [M:2/4]D,/B,,3/ B,,3/D,/ | 
[V:2] [M:2/4]z4 | 
[V:1] D,/D,3/B,,2 | 
[V:2] z4 | 
[V:1] F,3/G,/F,2 | 
[V:2] z4 | 
[V:1] F,2(3=E,E,E, | 
[V:2] z4 | 
[V:1] F,3/E,/ D,B,, | 
[V:2] z4 | 
[V:1] D,/D,3/B,,2 | 
[V:2] z4 | 
[V:1] D,3/F,/ D,3/B,,/ | 
[V:2] z4 | 
[V:1] D,/D,3/ (3B,,B,,B,, | 
[V:2] z4 | 
[V:1] B,,3B,, | 
[V:2] z4 | 
[V:1] B,,4 | 
[V:2] z4 | 
[V:1] B,,4 |]  
[V:2] z4 |]  



